X:1
T:Versus 2
T:Versus 2: Den Tod niemand zwingen kunnt 
T:Duo da Cantata BWV4 'Christ lag in Todesbanden'
T:Johann Sebastian Bach (1685-1750)
C:Johann Sebastian Bach (1685-1750)
%%score [ [ 1 2 ] 3 ]
L:1/8
Q:1/4=58
M:4/4
K:G
V:1 alto1 nm="Soprano" snm="Sop."
V:2 alto nm="Contralto" snm="C."
V:3 alto nm="Continuo (Viola)" snm="Con."
V:1
"^Versus II." z8 | z8 | z2 B2 ^A2 z2 | z2 B2 ^A2 z2 | z2 B2 ^A2 B^c | d4 e4- | e2 (d2 ^c2) Tc2 | %7
w: ||Den- Tod,|den- Tod,|den- Tod Nie- *|* mand|_ zwin- * gen|
 B2 z2 z4 | z4 z2 B2 | G4 A4 | B6 A2- | A2 G2 F4 | E2 z2 z4 | z8 | z2 B2 ^A2 z2 | z2 B2 ^A2 z2 | %16
w: kunnt|bei|al- len|Men- *|* schen- *|deru,||das macht,|das macht,|
 z2 B2 ^A2 B^c | d4 e4- | e2 (d2 ^c2) d2 | B2 z2 z4 | z4 z2 B2 | G4 A4 | B6 A2- | A2 G2 F4 | %24
w: das macth al- *|* les|_ un- * ser|SӮnd',|kein|Un- schuld|war _|_ zu fin-|
 E2 z2 z4 | z8 | E2 G2 A4- | A2 E2 G4 | z2 G2 A4 | z2 A2 B2 cB | B4 z4 | z4 z2 B2 | e4 z2 e2 | %33
w: den.||Da- von kam|_ der Tod,|der Tod,|der Tod so *|bald,|und|nahm Ӯ-|
 f6 d2 | (e6 d2 | ^c2) c2 B2 z2 | z8 | z4 z2 B2 | d6 B2 | d6 ^d2 | e2 E2 E4- | E2 EE E2 ^D2 | %42
w: * ber|uns _|_ Ge- walt,||hielt|uns in|sei- nem|Reich ge- fan-|* gen, ge- fan- *|
 E2 z2 B4 | A4 G4 | F4 E4 | z2 d4 ^c2- | c2 B4 ^A2 | B4 z2 B2- | B2 A4 (G2 | F2) G2 A2 BA | %50
w: gen. Hal-|* le-|lu- jah,|hal- *|* le- lu-|jah, ha-|* * le-|* lu- jah, hal- *|
 G2 F2 E4- | E8 | !fermata!z8 |] %53
w: le- lu- jah!|_||
V:2
 z8 | z8 | z4 z2 G2 | F2 z2 z2 G2 | F2 z2 z2 B2 | ^A2 B4 ^c2 | ^A2 B4 A2 | B2 z2 z4 | z8 | %9
w: ||Den-|Tod, den-|Tod, den-|Tod Nie- mand-|zwin- * gen|kunnt||
 z2 G2 G2 F2 | G2 F2 E4 | ^D2 E2 E2 D2 | E2 z2 z4 | z8 | z4 z2 G2 | F2 z2 z2 G2 | F2 z2 z2 B2 | %17
w: bei al- len|Men- * *|* schen- kin- *|deru||das|macht, das|macth, das|
 ^A2 B4 ^c2 | ^A2 B4 A2 | B2 z2 z4 | z8 | z2 G2 G2 F2 | G2 F2 E2 FE | ^D^C/B,/ E4 D2 | E2 z2 z4 | %25
w: macht al- les|un- * ser|SӮnd',||kein Unshuld *|war zu fin- * *||den.|
 z8 | z4 A,2 B,2 | C2 z2 z2 E2 | G4 z2 G2 | G6 F2 | G4 z4 | z8 | z2 E2 A4 | z2 ^A2 B4- | %34
w: |Da- von|kam der|Tod, der|Tod so|bald,||und nahm|Ӯ- *|
 B^G^cB ^A2 B2 | B2 ^A2 B2 z2 | z8 | z2 F2 G4 | z2 A2 B4- | B2 G2 B2 A2 | G2 AF F2 F2 | z2 F2 F4 | %42
w: * * * * * ber|uns Ge- walt,||hielt uns|in sei-|* nem Reich ge-|fan- * * * gen,|ge- fan-|
 E2 z2 z2 G2- | G2 F4 E2- | E2 ^D2 E2 (G2 | F4) (E4 | D4) ^C4 | B,4 B,4 | ^C4 ^D2 E2- | %49
w: gen. Hal-|* * le-|* lu- jah, hal-|* le-|* lu-|jah, hal-|le- * *|
 E2 ^D2 E2 E2 | E2 ^D2 A,4- | A,8 | !fermata!z8 |] %53
w: * lu- jah, hal-|le- lu- jah!|_||
V:3
 z EDd cCB,B | AA,G,G FG/A/ BB, | E,EDd ^c^CB,B | ^A^A,Dd ^c^CB,B | ^A^A,Dd ^c^C B,[K:treble]d/e/ | %5
 fFGf gG/F/ Ee | fF Gg/f/ ed/e/ fF | BB,/^C/ D[K:treble]d ed/e/ fF | BB, Cc/B/ AG/A/ BB, | %9
 EedD CcdD | G,G/A/ BB, CcFF, | B,B cC/B,/ A,G,/A,/ B,B, | E,EDd cCB,B | AA,G,G FG/A/ BB, | %14
 E,EDd ^c^CB,B | ^A^A,Dd ^c^CB,B | ^A^A,Dd ^c^C B,[K:treble]d/e/ | fFGf gG/F/ Ee | %18
 fF Gg/f/ ed/e/ fF |[K:alto] BB,/^C/ D[K:treble]d ed/e/ fF |[K:alto] BB, Cc/B/ AG/A/ BB, | %21
 EedD CcdD | G,G/A/ BB, CcFF, | B,B cC/B,/ A,G,/A,/ B,B, | E,edD CcBB, | A,AGG, A,G/A/ BB, | %26
 E,edD CcBB, | A,A GG,/F,/ E,EDD, | C,cBB, A,ABB, | CBc^C D^cdC | G,GFF, E,EDD, | C,CDD, G,GFF, | %32
 E,EDd ^cD ^CB/c/ | dD^C^c BCB,B | ^c^C/D/ E[K:treble]e fF Gg/f/ | eE Ff/e/ dD Ee/d/ | %36
[K:alto] ^c^C Dd/=c/ BB, =Cc/B/ | AA,B,B E^D,E,E | FE,F,F GF, G,G/A/ | BCB,A GG,F,F | %40
 EE,/D,/ C,c/B/ AA,B,B | cCB,B ^A^A,B,B | Ee ^d^C/^D/ Ee=d=D | Cc dD/C/ B,B cC/B,/ | A,ABB, E,BeE | %45
 Dd/^c/ BB, ^Cc/B/ ^A^A, | B,B/A/ GG, E,D/E/ FF, | B,BAA, G,G^G^G, | A,AGG, F,FGG, | A,ABB, CcGA | %50
 BA,B,B eEDd | cCB,B AG/A/ BB, | !fermata!E,8 |] %53

